X:52
T: Flatbush Waltz
O:klezmer
C:Andy Statman
D:Flatbush Waltz; Rounder 00116 (1980)
Z:John Chambers <jc@trillian.mit.edu>
L:1/8
M:3/4
R:Waltz
S:Frets Magazine, Dec 1980
K:Am
[| "Am"e3 a ed | c2 A2 A2 | e3 a ec | "Dm"d3 f ed \
| "Am"AB cd ec/e/ | "Dm"dA d2 d2 | "Am"c3 d "Bb"_Bc  | "Am"A2 A, CE Ac ||
|| "Am"[e3A] [ae] [ec][dB] | [c2A] [A2E] [A2E] | [e3c] [ae] [ec][cA] | "Dm"[d3A] g (3fed \
| "Am"cd ef ge | "Dm"dA d2 d2 | "Am"c3 d "Bb"_Bc  | "Am"A6 ||
|| "Am"[c'4e] [bd][ac] | "E7"[bd]E [e^G]B e^g | "F"[a2c] [g3B] [fA] | "C"[e6G] \
| "Dm"[f2A] [e2G] [d2F] | "Am"[e2G] [a2c] [b2d] | [c'3e] [bd] [c'e][d'f] | "E7"[b6d] ||
|| "Am"[c'4e] [bd][ac] | "E7"[bd]E [e^G]B e^g | "F"[a2c] [g3B] [fA] | "C"[e6G] \
| "Dm"[f2A] [e2G] [d2F] | "Am"[e2G] [A2C] [d2F] |  "Am"[c3E] [dF] "Bb"[_BD][cE]  | "Am"[A6C] |]





